symbols/web/view_headline/materialsymbolsrounded/view_headline_wght100_24px.svg

<svg xmlns="http://www.w3.org/2000/svg" height="24" width="24"><path d="M4.975 14.2q-.125 0-.225-.1t-.1-.25q0-.15.1-.25t.25-.1h14.025q.125 0 .225.1t.1.25q0 .15-.1.25t-.25.1Zm0 3.7q-.125 0-.225-.1t-.1-.25q0-.15.1-.25t.25-.1h14.025q.125 0 .225.1t.1.25q0 .15-.1.25t-.25.1Zm0-7.4q-.125 0-.225-.1t-.1-.25q0-.15.1-.25T5 9.8h14.025q.125 0 .225.1t.1.25q0 .15-.1.25t-.25.1Zm0-3.7q-.125 0-.225-.1t-.1-.25q0-.15.1-.25T5 6.1h14.025q.125 0 .225.1t.1.25q0 .15-.1.25t-.25.1Z"/></svg>

<svg xmlns="http://www.w3.org/2000/svg" height="24" width="24"><path d="M4.975 14.2Q4.85 14.2 4.75 14.1Q4.65 14 4.65 13.85Q4.65 13.7 4.75 13.6Q4.85 13.5 5 13.5H19.025Q19.15 13.5 19.25 13.6Q19.35 13.7 19.35 13.85Q19.35 14 19.25 14.1Q19.15 14.2 19 14.2ZM4.975 17.9Q4.85 17.9 4.75 17.8Q4.65 17.7 4.65 17.55Q4.65 17.4 4.75 17.3Q4.85 17.2 5 17.2H19.025Q19.15 17.2 19.25 17.3Q19.35 17.4 19.35 17.55Q19.35 17.7 19.25 17.8Q19.15 17.9 19 17.9ZM4.975 10.5Q4.85 10.5 4.75 10.4Q4.65 10.3 4.65 10.15Q4.65 10 4.75 9.9Q4.85 9.8 5 9.8H19.025Q19.15 9.8 19.25 9.9Q19.35 10 19.35 10.15Q19.35 10.3 19.25 10.4Q19.15 10.5 19 10.5ZM4.975 6.8Q4.85 6.8 4.75 6.7Q4.65 6.6 4.65 6.45Q4.65 6.3 4.75 6.2Q4.85 6.1 5 6.1H19.025Q19.15 6.1 19.25 6.2Q19.35 6.3 19.35 6.45Q19.35 6.6 19.25 6.7Q19.15 6.8 19 6.8Z"/></svg>
